X: 722
T: Welcome Home   #2
R: reel
%S: s:2 b:11(6+5)
B: Francis O'Neill: "The Dance Music of Ireland" (1907) #722
Z: Frank Nordberg - http://www.musicaviva.com
F: http://www.musicaviva.com/abc/tunes/ireland/oneill-1001/0722/oneill-1001-0722-1.abc
N: Compacted via repeats and multiple endings [JC]
M: C|
L: 1/8
K: D
"^A"[|]\
AG | FEFG AFDc | BAGB AGFD | FEFG A3g | fdec [1 dc :|[2 d2 "^B"|: de | fedf edce |
| dcAB cAG [1 g | fedf edcA | Adce d2 :|[2 E | FEFG A3g  | fdec d2 |]
